editor/icons/icon_key_bezier_handle.svg

<svg height="8" viewBox="0 0 8 8" width="8" xmlns="http://www.w3.org/2000/svg"><path d="m3.9960938-.03710938c-.1950007 0-.3896403.07518711-.5390626.22460938l-3.23632808 3.2363281c-.29883746.2988375-.29884453.7812336 0 1.0800781l3.23632808 3.2363282c.2988375.2988374.7812407.2988374 1.0800782 0l3.2363281-3.2363282c.2988445-.2988445.2988375-.7812406 0-1.0800781l-3.2363281-3.2363281c-.1494223-.14942227-.346015-.22460938-.5410156-.22460938zm.0292968.8515625c.1516192 0 .3037416.05796444.4199219.17382813l2.515625 2.50781255c.2323605.2317273.2323605.6061632 0 .8378906l-2.515625 2.5097656c-.2323605.2317274-.6074832.2317274-.8398437 0l-2.515625-2.5097656c-.23236057-.2317274-.23236057-.6061633 0-.8378906l2.515625-2.50781255c.1161802-.11586369.2683026-.17382813.4199218-.17382813z" fill="#e0e0e0"/></svg>

<?xml version="1.0" encoding="UTF-8" standalone="no"?>
<svg
   xmlns:dc="http://purl.org/dc/elements/1.1/"
   xmlns:cc="http://creativecommons.org/ns#"
   xmlns:rdf="http://www.w3.org/1999/02/22-rdf-syntax-ns#"
   xmlns:svg="http://www.w3.org/2000/svg"
   xmlns="http://www.w3.org/2000/svg"
   xmlns:sodipodi="http://sodipodi.sourceforge.net/DTD/sodipodi-0.dtd"
   xmlns:inkscape="http://www.inkscape.org/namespaces/inkscape"
   width="8"
   height="8"
   version="1.1"
   viewBox="0 0 8 8"
   id="svg6"
   sodipodi:docname="icon_key_bezier_handle.svg"
   inkscape:version="0.92.3 (2405546, 2018-03-11)">
  <metadata
     id="metadata12">
    <rdf:RDF>
      <cc:Work
         rdf:about="">
        <dc:format>image/svg+xml</dc:format>
        <dc:type
           rdf:resource="http://purl.org/dc/dcmitype/StillImage" />
        <dc:title />
      </cc:Work>
    </rdf:RDF>
  </metadata>
  <defs
     id="defs10" />
  <sodipodi:namedview
     pagecolor="#ffffff"
     bordercolor="#666666"
     borderopacity="1"
     objecttolerance="10"
     gridtolerance="10"
     guidetolerance="10"
     inkscape:pageopacity="0"
     inkscape:pageshadow="2"
     inkscape:window-width="1853"
     inkscape:window-height="1016"
     id="namedview8"
     showgrid="false"
     inkscape:zoom="59"
     inkscape:cx="2.0952442"
     inkscape:cy="4.6061633"
     inkscape:window-x="67"
     inkscape:window-y="27"
     inkscape:window-maximized="1"
     inkscape:current-layer="g4" />
  <g
     transform="translate(0 -1044.4)"
     id="g4">
    <path
       style="fill:#e0e0e0;fill-opacity:1"
       d="M 3.9960938 -0.037109375 C 3.8010931 -0.037109375 3.6064535 0.038077731 3.4570312 0.1875 L 0.22070312 3.4238281 C -0.078134343 3.7226656 -0.078141414 4.2050617 0.22070312 4.5039062 L 3.4570312 7.7402344 C 3.7558687 8.0390718 4.2382719 8.0390718 4.5371094 7.7402344 L 7.7734375 4.5039062 C 8.072282 4.2050617 8.072275 3.7226656 7.7734375 3.4238281 L 4.5371094 0.1875 C 4.3876871 0.038077731 4.1910944 -0.037109375 3.9960938 -0.037109375 z M 4.0253906 0.81445312 C 4.1770098 0.81445312 4.3291322 0.87241756 4.4453125 0.98828125 L 6.9609375 3.4960938 C 7.193298 3.7278211 7.193298 4.102257 6.9609375 4.3339844 L 4.4453125 6.84375 C 4.212952 7.0754774 3.8378293 7.0754774 3.6054688 6.84375 L 1.0898438 4.3339844 C 0.85748323 4.102257 0.85748323 3.7278211 1.0898438 3.4960938 L 3.6054688 0.98828125 C 3.721649 0.87241756 3.8737714 0.81445312 4.0253906 0.81445312 z "
       transform="translate(0,1044.4)"
       id="rect2" />
  </g>
</svg>
